img/footer__pinterest.svg

<svg width="30" height="30" viewBox="0 0 30 30" fill="none" xmlns="http://www.w3.org/2000/svg">
<path d="M0 15.0005C0 6.71622 6.71573 0.000488281 15 0.000488281C23.2843 0.000488281 30 6.71622 30 15.0005C30 23.2848 23.2843 30.0005 15 30.0005C6.71573 30.0005 0 23.2848 0 15.0005Z" fill="#6B6868"/>
<path d="M15.4305 5.86621C13.1086 5.86621 11.2964 6.54579 9.96551 7.90496C8.63466 9.26413 7.95508 10.7649 7.95508 12.4355C7.95508 14.5026 8.66298 15.8334 10.1071 16.4281C10.2204 16.4281 10.3053 16.4281 10.3903 16.4564C10.4752 16.4564 10.5318 16.3998 10.5885 16.2865C10.6451 16.1449 10.6734 16.06 10.7017 16.0033C10.73 15.9467 10.73 15.8334 10.7584 15.6635C10.7867 15.4936 10.815 15.4087 10.815 15.3804C10.8716 15.1822 10.815 15.0123 10.6734 14.8141C10.192 14.2477 9.96551 13.5682 9.96551 12.747C9.96551 11.3595 10.4469 10.1986 11.3813 9.20749C12.3441 8.21644 13.59 7.73506 15.119 7.73506C16.5065 7.73506 17.5542 8.10317 18.3187 8.83939C19.0833 9.5756 19.4514 10.5383 19.4514 11.7276C19.4514 13.2567 19.1399 14.5875 18.5169 15.6919C17.894 16.7962 17.1011 17.3342 16.1384 17.3342C15.5721 17.3342 15.119 17.136 14.7792 16.7395C14.4394 16.3431 14.3262 15.8617 14.4678 15.3237C14.5527 15.0123 14.666 14.5875 14.8359 14.0495C15.0058 13.5115 15.1473 13.0301 15.2323 12.6337C15.3455 12.2373 15.3739 11.8975 15.3739 11.6144C15.3739 11.1613 15.2606 10.7932 15.0058 10.51C14.7509 10.2269 14.4111 10.0853 13.9581 10.0853C13.3917 10.0853 12.9104 10.3401 12.5139 10.8498C12.1175 11.3595 11.9193 12.0108 11.9193 12.7753C11.9193 13.4266 12.0326 13.9929 12.2591 14.4176L10.9283 20.1375C10.6734 21.1851 10.6734 22.516 10.8999 24.13C10.9283 24.2716 11.0132 24.2999 11.1265 24.1866C12.0892 22.9691 12.7122 21.8364 13.0236 20.7321C13.1086 20.4206 13.3634 19.4579 13.7599 17.8439C13.9581 18.212 14.2979 18.5234 14.7792 18.7783C15.2606 19.0331 15.7986 19.1747 16.3366 19.1747C17.9789 19.1747 19.3381 18.4951 20.4141 17.136C21.4618 15.7768 21.9998 14.0495 21.9998 11.9825C21.9998 10.3684 21.3768 8.95265 20.1309 7.76338C18.885 6.57411 17.3843 5.86621 15.4305 5.86621Z" fill="white"/>
</svg>

<svg width="30" height="30" fill="none" xmlns="http://www.w3.org/2000/svg"><path d="M0 15C0 6.716 6.716 0 15 0c8.284 0 15 6.716 15 15 0 8.285-6.716 15-15 15-8.284 0-15-6.715-15-15z" fill="#6B6868"/><path d="M15.43 5.866c-2.321 0-4.134.68-5.464 2.039-1.331 1.36-2.01 2.86-2.01 4.53 0 2.068.707 3.398 2.151 3.993.113 0 .198 0 .283.028.085 0 .142-.056.198-.17.057-.141.085-.226.114-.283.028-.056.028-.17.056-.34.029-.17.057-.254.057-.283.057-.198 0-.368-.142-.566-.481-.566-.707-1.246-.707-2.067 0-1.387.48-2.548 1.415-3.54.963-.99 2.209-1.472 3.738-1.472 1.387 0 2.435.368 3.2 1.104.764.737 1.132 1.7 1.132 2.889 0 1.529-.311 2.86-.934 3.964s-1.416 1.642-2.379 1.642c-.566 0-1.019-.198-1.359-.595-.34-.396-.453-.877-.311-1.415.085-.312.198-.736.368-1.274.17-.539.311-1.02.396-1.416a3.62 3.62 0 00.142-1.02c0-.453-.113-.82-.368-1.104-.255-.283-.595-.425-1.048-.425-.566 0-1.048.255-1.444.765-.396.51-.595 1.16-.595 1.925 0 .652.114 1.218.34 1.643l-1.33 5.72c-.256 1.047-.256 2.378-.03 3.992.03.142.114.17.228.057.962-1.218 1.585-2.35 1.897-3.455.085-.311.34-1.274.736-2.888.198.368.538.68 1.02.934.48.255 1.019.397 1.557.397 1.642 0 3.001-.68 4.077-2.039C21.462 15.776 22 14.05 22 11.983c0-1.615-.623-3.03-1.87-4.22-1.245-1.189-2.746-1.897-4.7-1.897z" fill="#fff"/></svg>
